X: 35527
T: Ruins Of Killmallock, The
R: jig
M: 6/8
K: Gdorian
A|:BAB cBc|d2G GFA|BAc BAG|FDE F2A|
BAB cBc|d2G GFA|B2c BAG|1 DFG G2A:|2 DFG G3||
K: Gmaj
|:gfg dBd|gfe dcB|cBc AFA|cBc def|
gfg dBd|gfe dcB|ABc def|1 gGG G3:|2 gGG G2A||

